X:1
T:Title
%%score ( 1 2 ) { 3 | 4 }
L:1/8
Q:1/4=95
M:3/4
K:F
V:1 treble nm="Grand Piano, Soprano"
V:2 treble 
V:3 treble nm="Choir Pad, Bass"
V:4 bass 
V:1
 FG [FA]3 [FA] | [FA][FA] [Ec] [EB]3 | GA [EB]3 [EB] | [Ec][EB] [FA]4 | FG [FA]3 [FA] | %5
w: By~William~James~Kirkpatrick * * *|||||
 [FA][FA] [Ec] [EB]3 | GA [EB]3 [EB] | [Ec][EB] [FA]4 | F2 [Fd]3 [Fd] | [Fd][Fd] [Fd] [Fc]3 | %10
w: |||||
 [FA]2 [Ec]3 [Ec] | [Ec][EB] [FA]4 | F2 [Fd]3 [Fd] | [Fd][Fd] [Fd] [Fc]3 | [FA]2 [EG]3 [Ec] | %15
w: |||||
 [D=B][Fd] [Ec]4 | F[FG] [FA] [FA]3 | [FA]2 [EB] [EB]3 | [EB]2 [Fc]3 [Fd] | [Fc][FA] [EG]4 | %20
w: |||||
 [Gc][GB] [FA] [FA]3 | [Fc]2 [FB] [Fd]3- | [Fd]2 [Fc]3 [FA] | [EB][EG] [CF]4- | [CF]4 z2 |] %25
w: |||||
V:2
 x6 | x6 | E2 z2 z2 | x6 | x6 | x6 | E2 z2 z2 | x6 | x6 | x6 | x6 | x6 | x6 | x6 | x6 | x6 | x6 | %17
 x6 | x6 | x6 | x6 | x6 | x6 | x6 | x6 |] %25
V:3
 A,B, C3 C | C[K:bass]A, G, G,3 | G,2 G,3 G, | G,[K:treble]C C4 | A,C C3 C | C[K:bass]A, G, G,3 | %6
 G,2 G,3 G, | G,C C4 | A,2 B,3 B, | B,B, B, A,3 | A,2 G,3 G, | G,C C4 | A,2 B,3 B, | B,B, B, A,3 | %14
 C2 C3 G, | G,G, G,4 | A,B,[K:treble] C C3 | C2 C C3 | C2 C3 F | FC C4 | CC C C3 | %21
 _E2 D[K:bass] B,3- | B,2 A,3 C | G,B, A,4- | A,4 z2 |] %25
V:4
 F,2 F,3 F, | F,F, C, C,3 | C,2 C,3 C, | C,C, F,4 | F,2 F,3 F, | F,F, C, C,3 | C,2 C,3 C, | %7
 C,C, F,4 | F,2 B,,3 B,, | B,,D, F, F,3 | F,2 C,3 C, | C,C, F,4 | F,2 B,,3 C, | C,E, F, F,3 | %14
 F,2 G,4 | z2 C,4 | F,G, G, F,3 | F,2 G, G,3 | G,2 A,3 B, | A,F, C,4 | E,E, F, F,3 | %21
 A,,2 B,, B,,3- | B,,2 C,3 C, | C,C, F,4- | F,4 z2 |] %25

